X:51
T: Mikor kend es Laci bátyám szépen hegedűlne
O: Trunk (Bákó), 1932
Q: 1/4=152
M:2/4
L:1/8
K:D
DFAA | AAAA | BAGB | A2 A2 | 
DFAA | AAAA | BAGB | A2 A2 | 
GFAA | FDE2 | DFAA | FDE2 | 
FFEE | D2 z2 |

